src/next/cmd/32/graphicfiltermosaic.svg

<svg height="32" viewBox="0 0 8.4666665 8.466667" width="32" xmlns="http://www.w3.org/2000/svg"><g transform="matrix(.25 0 0 .25 0 -65.78333)"><path d="m4.233333 267.36667h4.233333v4.23333h-4.233333z" fill="#ffd500"/><path d="m8.466666 267.36667h4.233333v4.23333h-4.233333z" fill="#bff500"/><path d="m12.7 267.36667h4.233333v4.23333h-4.233333z" fill="#00bf00"/><path d="m16.933332 267.36667h4.233333v4.23333h-4.233333z" fill="#00f"/><path d="m21.166666 267.36667h4.233333v4.23333h-4.233333z" fill="#5a00b3"/><path d="m25.4 267.36667h4.233333v4.23333h-4.233333z" fill="#cc009a"/><path d="m4.233333 271.59998h4.233333v4.23333h-4.233333z" fill="#37a42c"/><path d="m8.466666 271.59998h4.233333v4.23333h-4.233333z" fill="#fd0"/><path d="m12.7 271.59998h4.233333v4.23333h-4.233333z" fill="#eb7331"/><path d="m16.933332 271.59998h4.233333v4.23333h-4.233333z" fill="#888a85"/><path d="m21.166666 271.59998h4.233333v4.23333h-4.233333z" fill="#bf5e00"/><path d="m25.4 271.59998h4.233333v4.23333h-4.233333z" fill="#bf0000"/><path d="m4.233333 275.83331h4.233333v4.23333h-4.233333z" fill="#096"/><path d="m8.466666 275.83331h4.233333v4.23333h-4.233333z" fill="#007880"/><path d="m12.7 275.83331h4.233333v4.23333h-4.233333z" fill="#0057ae"/><path d="m16.933332 275.83331h4.233333v4.23333h-4.233333z" fill="#462886"/><path d="m21.166666 275.83331h4.233333v4.23333h-4.233333z" fill="#a02786"/><path d="m25.4 275.83331h4.233333v4.23333h-4.233333z" fill="#e20071"/><path d="m4.233333 280.06662h4.233333v4.23333h-4.233333z" fill="#e20800"/><path d="m8.466666 280.06662h4.233333v4.23333h-4.233333z" fill="#75511a"/><path d="m12.7 280.06662h4.233333v4.23333h-4.233333z" fill="#ffd500"/><path d="m16.933332 280.06662h4.233333v4.23333h-4.233333z" fill="#bff500"/><path d="m21.166666 280.06662h4.233333v4.23333h-4.233333z" fill="#00bf00"/><path d="m25.4 280.06662h4.233333v4.23333h-4.233333z" fill="#00f"/><path d="m4.233333 284.29999h4.233333v4.23333h-4.233333z" fill="#eb7331"/><path d="m8.466666 284.29999h4.233333v4.23333h-4.233333z" fill="#888a85"/><path d="m12.7 284.29999h4.233333v4.23333h-4.233333z" fill="#bf5e00"/><path d="m16.933332 284.29999h4.233333v4.23333h-4.233333z" fill="#bf0000"/><path d="m21.166666 284.29999h4.233333v4.23333h-4.233333z" fill="#cc009a"/><path d="m25.4 284.29999h4.233333v4.23333h-4.233333z" fill="#5a00b3"/><path d="m4.233333 288.53329h4.233333v4.23333h-4.233333z" fill="#fd0"/><path d="m8.466666 288.53329h4.233333v4.23333h-4.233333z" fill="#37a42c"/><path d="m12.7 288.53329h4.233333v4.23333h-4.233333z" fill="#e20071"/><path d="m16.933332 288.53329h4.233333v4.23333h-4.233333z" fill="#a02786"/><path d="m21.166666 288.53329h4.233333v4.23333h-4.233333z" fill="#462886"/><path d="m25.4 288.53329h4.233333v4.23333h-4.233333z" fill="#0057ae"/></g></svg>

<?xml version="1.0" encoding="UTF-8" standalone="no"?>
<svg
   xmlns:dc="http://purl.org/dc/elements/1.1/"
   xmlns:cc="http://creativecommons.org/ns#"
   xmlns:rdf="http://www.w3.org/1999/02/22-rdf-syntax-ns#"
   xmlns:svg="http://www.w3.org/2000/svg"
   xmlns="http://www.w3.org/2000/svg"
   xmlns:sodipodi="http://sodipodi.sourceforge.net/DTD/sodipodi-0.dtd"
   xmlns:inkscape="http://www.inkscape.org/namespaces/inkscape"
   height="32"
   viewBox="0 0 8.4666665 8.466667"
   width="32"
   version="1.1"
   id="svg78"
   sodipodi:docname="graphicfiltermosaic.svg"
   inkscape:version="0.92.4 (unknown)"
   inkscape:export-filename="/home/rizmut/Dokumen/Rizmut/Github/libreoffice-style-karasa-jaga/build/next/cmd/32/graphicfiltermosaic.png"
   inkscape:export-xdpi="96"
   inkscape:export-ydpi="96">
  <metadata
     id="metadata84">
    <rdf:RDF>
      <cc:Work
         rdf:about="">
        <dc:format>image/svg+xml</dc:format>
        <dc:type
           rdf:resource="http://purl.org/dc/dcmitype/StillImage" />
        <dc:title></dc:title>
      </cc:Work>
    </rdf:RDF>
  </metadata>
  <defs
     id="defs82" />
  <sodipodi:namedview
     pagecolor="#ffffff"
     bordercolor="#666666"
     borderopacity="1"
     objecttolerance="10"
     gridtolerance="10"
     guidetolerance="10"
     inkscape:pageopacity="0"
     inkscape:pageshadow="2"
     inkscape:window-width="640"
     inkscape:window-height="480"
     id="namedview80"
     showgrid="true"
     inkscape:zoom="5.2591067"
     inkscape:cx="18.258591"
     inkscape:cy="21.524664"
     inkscape:current-layer="g932">
    <inkscape:grid
       type="xygrid"
       id="grid891" />
  </sodipodi:namedview>
  <g
     transform="translate(0,-288.53332)"
     id="g76">
    <g
       id="g932"
       transform="matrix(0.25,0,0,0.25,-2.1264649e-7,222.74999)">
      <path
         id="path4"
         d="M 4.233333,267.36667 H 8.466666 V 271.6 H 4.233333 Z"
         inkscape:connector-curvature="0"
         style="fill:#ffd500" />
      <path
         id="path6"
         d="m 8.466666,267.36667 h 4.233333 V 271.6 H 8.466666 Z"
         inkscape:connector-curvature="0"
         style="fill:#bff500" />
      <path
         id="path8"
         d="m 12.7,267.36667 h 4.233333 V 271.6 H 12.7 Z"
         inkscape:connector-curvature="0"
         style="fill:#00bf00" />
      <path
         id="path10"
         d="m 16.933332,267.36667 h 4.233333 V 271.6 h -4.233333 z"
         inkscape:connector-curvature="0"
         style="fill:#0000ff" />
      <path
         id="path12"
         d="m 21.166666,267.36667 h 4.233333 V 271.6 h -4.233333 z"
         inkscape:connector-curvature="0"
         style="fill:#5a00b3" />
      <path
         id="path14"
         d="m 25.4,267.36667 h 4.233333 V 271.6 H 25.4 Z"
         inkscape:connector-curvature="0"
         style="fill:#cc009a" />
      <path
         id="path16"
         d="m 4.233333,271.59998 h 4.233333 v 4.23333 H 4.233333 Z"
         inkscape:connector-curvature="0"
         style="fill:#37a42c" />
      <path
         id="path18"
         d="m 8.466666,271.59998 h 4.233333 v 4.23333 H 8.466666 Z"
         inkscape:connector-curvature="0"
         style="fill:#ffdd00" />
      <path
         id="path20"
         d="m 12.7,271.59998 h 4.233333 v 4.23333 H 12.7 Z"
         inkscape:connector-curvature="0"
         style="fill:#eb7331" />
      <path
         id="path22"
         d="m 16.933332,271.59998 h 4.233333 v 4.23333 h -4.233333 z"
         inkscape:connector-curvature="0"
         style="fill:#888a85" />
      <path
         id="path24"
         d="m 21.166666,271.59998 h 4.233333 v 4.23333 h -4.233333 z"
         inkscape:connector-curvature="0"
         style="fill:#bf5e00" />
      <path
         id="path26"
         d="m 25.4,271.59998 h 4.233333 v 4.23333 H 25.4 Z"
         inkscape:connector-curvature="0"
         style="fill:#bf0000" />
      <path
         id="path28"
         d="m 4.233333,275.83331 h 4.233333 v 4.23333 H 4.233333 Z"
         inkscape:connector-curvature="0"
         style="fill:#009966" />
      <path
         id="path30"
         d="m 8.466666,275.83331 h 4.233333 v 4.23333 H 8.466666 Z"
         inkscape:connector-curvature="0"
         style="fill:#007880" />
      <path
         id="path32"
         d="m 12.7,275.83331 h 4.233333 v 4.23333 H 12.7 Z"
         inkscape:connector-curvature="0"
         style="fill:#0057ae" />
      <path
         id="path34"
         d="m 16.933332,275.83331 h 4.233333 v 4.23333 h -4.233333 z"
         inkscape:connector-curvature="0"
         style="fill:#462886" />
      <path
         id="path36"
         d="m 21.166666,275.83331 h 4.233333 v 4.23333 h -4.233333 z"
         inkscape:connector-curvature="0"
         style="fill:#a02786" />
      <path
         id="path38"
         d="m 25.4,275.83331 h 4.233333 v 4.23333 H 25.4 Z"
         inkscape:connector-curvature="0"
         style="fill:#e20071" />
      <path
         id="path40"
         d="m 4.233333,280.06662 h 4.233333 v 4.23333 H 4.233333 Z"
         inkscape:connector-curvature="0"
         style="fill:#e20800" />
      <path
         id="path42"
         d="m 8.466666,280.06662 h 4.233333 v 4.23333 H 8.466666 Z"
         inkscape:connector-curvature="0"
         style="fill:#75511a" />
      <path
         id="path44"
         d="m 12.7,280.06662 h 4.233333 v 4.23333 H 12.7 Z"
         inkscape:connector-curvature="0"
         style="fill:#ffd500" />
      <path
         id="path46"
         d="m 16.933332,280.06662 h 4.233333 v 4.23333 h -4.233333 z"
         inkscape:connector-curvature="0"
         style="fill:#bff500" />
      <path
         id="path48"
         d="m 21.166666,280.06662 h 4.233333 v 4.23333 h -4.233333 z"
         inkscape:connector-curvature="0"
         style="fill:#00bf00" />
      <path
         id="path50"
         d="m 25.4,280.06662 h 4.233333 v 4.23333 H 25.4 Z"
         inkscape:connector-curvature="0"
         style="fill:#0000ff" />
      <path
         id="path52"
         d="m 4.233333,284.29999 h 4.233333 v 4.23333 H 4.233333 Z"
         inkscape:connector-curvature="0"
         style="fill:#eb7331" />
      <path
         id="path54"
         d="m 8.466666,284.29999 h 4.233333 v 4.23333 H 8.466666 Z"
         inkscape:connector-curvature="0"
         style="fill:#888a85" />
      <path
         id="path56"
         d="m 12.7,284.29999 h 4.233333 v 4.23333 H 12.7 Z"
         inkscape:connector-curvature="0"
         style="fill:#bf5e00" />
      <path
         id="path58"
         d="m 16.933332,284.29999 h 4.233333 v 4.23333 h -4.233333 z"
         inkscape:connector-curvature="0"
         style="fill:#bf0000" />
      <path
         id="path60"
         d="m 21.166666,284.29999 h 4.233333 v 4.23333 h -4.233333 z"
         inkscape:connector-curvature="0"
         style="fill:#cc009a" />
      <path
         id="path62"
         d="m 25.4,284.29999 h 4.233333 v 4.23333 H 25.4 Z"
         inkscape:connector-curvature="0"
         style="fill:#5a00b3" />
      <path
         id="path64"
         d="m 4.233333,288.53329 h 4.233333 v 4.23333 H 4.233333 Z"
         inkscape:connector-curvature="0"
         style="fill:#ffdd00" />
      <path
         id="path66"
         d="m 8.466666,288.53329 h 4.233333 v 4.23333 H 8.466666 Z"
         inkscape:connector-curvature="0"
         style="fill:#37a42c" />
      <path
         id="path68"
         d="m 12.7,288.53329 h 4.233333 v 4.23333 H 12.7 Z"
         inkscape:connector-curvature="0"
         style="fill:#e20071" />
      <path
         id="path70"
         d="m 16.933332,288.53329 h 4.233333 v 4.23333 h -4.233333 z"
         inkscape:connector-curvature="0"
         style="fill:#a02786" />
      <path
         id="path72"
         d="m 21.166666,288.53329 h 4.233333 v 4.23333 h -4.233333 z"
         inkscape:connector-curvature="0"
         style="fill:#462886" />
      <path
         id="path74"
         d="m 25.4,288.53329 h 4.233333 v 4.23333 H 25.4 Z"
         inkscape:connector-curvature="0"
         style="fill:#0057ae" />
    </g>
  </g>
</svg>
